lib/functional/brands/windows-logo.svg

<svg xmlns="http://www.w3.org/2000/svg" fill="none" stroke="currentColor" aria-hidden="true" viewBox="0 0 32 32"><g id="Icon-WindowsLogo"><g clip-path="url(#clip0_11_3398)"><g id="size=md (32px)"><path id="Vector" stroke-linecap="round" stroke-linejoin="round" stroke-width="2" d="M27 27L17 25.1875V18H27V27Z"/><path id="Vector_2" stroke-linecap="round" stroke-linejoin="round" stroke-width="2" d="M13 24.45L5 23V18H13V24.45Z"/><path id="Vector_3" stroke-linecap="round" stroke-linejoin="round" stroke-width="2" d="M27 5L17 6.8125V14H27V5Z"/><path id="Vector_4" stroke-linecap="round" stroke-linejoin="round" stroke-width="2" d="M13 7.54999L5 8.99999V14H13V7.54999Z"/></g></g></g><defs><clipPath id="clip0_11_3398"><rect width="32" height="32" fill="white" rx="5"/></clipPath></defs></svg>

<svg xmlns="http://www.w3.org/2000/svg" fill="none" stroke="currentColor" aria-hidden="true" viewBox="0 0 32 32"><g stroke="#101828" stroke-linecap="round" stroke-linejoin="round" stroke-width="2" clip-path="url(#a)"><path d="m27 27-10-1.813V18h10v9Zm-14-2.55L5 23v-5h8v6.45ZM27 5 17 6.813V14h10V5ZM13 7.55 5 9v5h8V7.55Z"/></g><defs><clipPath id="a"><rect width="32" height="32" fill="#fff" rx="5"/></clipPath></defs></svg>
